X:058 
T:Fowney's Fancy* (polka)
F:file ID: cre.4/058fown_f
S:BPC < Barrett < Collins
B:CRE4.078: gan ainm [BB setting]
L:1/8
M:2/4
Q:120
R:polka
K:Em
D|E>F GA|Be dA|B>^c dA/F/|EF D2|
E>F GA|Be dA|B>^c dA/F/|DF E :|
|:B|e>d ed/e/|fe dB|d2 d>^c|B^c dB|
e>d ed/e/|fe dA|B>^c dA/F/|DF E:|

%%%

